src/main/resources/icons/DatabaseIcons/icons/colGoldKeyDotIndex.svg

<svg xmlns="http://www.w3.org/2000/svg" width="16" height="16" viewBox="0 0 16 16">
  <g fill="none" fill-rule="evenodd" transform="matrix(-1 0 0 1 16 2)">
    <path fill="#40B6E0" fill-opacity=".7" d="M15,8.33681558 C14.5453723,8.12084552 14.0367986,8 13.5,8 C11.5670034,8 10,9.56700338 10,11.5 C10,11.6697607 10.012086,11.8366985 10.0354444,12 L10,12 L10,0 L15,0 L15,8.33681558 Z"/>
    <path fill="#9AA7B0" d="M5.6458244,9 C5.96981926,8.71403623 6.24713257,8.37640519 6.46487122,8 L9,8 L9,9 L6,9 L5.6458244,9 Z M6,11 L9,11 L9,12 L6,12 L6,11 Z M1,12 L1,9.46487122 L1,12 Z M1,2.53512878 L1,0 L9,0 L9,3 L6,3 L6,3.3541756 C5.26705555,2.52375489 4.19469253,2 3,2 C2.27142571,2 1.58834673,2.19478857 1,2.53512878 Z M6.87398251,5 L9,5 L9,6 L7,6 C7,5.65470043 6.956247,5.31961992 6.87398251,5 Z"/>
    <path fill="#D9A343" d="M4,11 L6,11 L6,13 L4,13 L4,14 L2,14 L2,8.82929429 C0.834807627,8.41745788 0,7.30621883 0,6 C0,4.34314575 1.34314575,3 3,3 C4.65685425,3 6,4.34314575 6,6 C6,7.30621883 5.16519237,8.41745788 4,8.82929429 L4,11 Z M3,7 C3.55228475,7 4,6.55228475 4,6 C4,5.44771525 3.55228475,5 3,5 C2.44771525,5 2,5.44771525 2,6 C2,6.55228475 2.44771525,7 3,7 Z" transform="matrix(-1 0 0 1 6 0)"/>
    <circle cx="13.5" cy="11.5" r="2.5" fill="#231F20" fill-opacity=".7"/>
  </g>
</svg>

<svg xmlns="http://www.w3.org/2000/svg" width="16" height="16" viewBox="0 0 16 16"><rect id="frame" width="16" height="16" fill="none"/><g fill="none" fill-rule="evenodd" transform="matrix(-1 0 0 1 16 2)"><path fill="#40B6E0" fill-opacity=".7" d="M15 8.337A3.5 3.5 0 0 0 10.035 12H10V0h5v8.337z"/><path fill="#9AA7B0" d="M5.646 9c.324-.286.601-.624.819-1H9v1H5.646zM6 11h3v1H6v-1zm-5 1V9.465 12zm0-9.465V0h8v3H6v.354A3.99 3.99 0 0 0 3 2c-.729 0-1.412.195-2 .535zM6.874 5H9v1H7c0-.345-.044-.68-.126-1z"/><path fill="#D9A343" d="M2 11H0v2h2v1h2V8.83a3.001 3.001 0 1 0-2 0V11zm1-4a1 1 0 1 1 0-2 1 1 0 0 1 0 2z"/><circle cx="13.5" cy="11.5" r="2.5" fill="#231F20" fill-opacity=".7"/></g></svg>
